www/images/weight.svg

<svg fill="none" height="75" viewBox="0 0 75 75" width="75" xmlns="http://www.w3.org/2000/svg"><g clip-rule="evenodd" fill="#fff" fill-rule="evenodd"><path d="m58.3841 32.898h8.7809c1.5014 0 1.5014 2.4915 0 2.4915-3.536 0-3.5896 4.4767.0647 4.4767 1.2292 0 2.2354.9971 2.2354 2.2152v9.701c0 1.2181-1.0061 2.2152-2.2354 2.2152h-8.9105c-1.2292 0-2.2354-.9971-2.2354-2.2152v-9.701c0-1.2181 1.0061-2.2152 2.2354-2.2152 3.6542 0 3.6007-4.4767.0647-4.4767-1.5014 0-1.5012-2.4915.0002-2.4915z"/><path d="m35.8773 26.9487h11.2572c1.9253 0 1.9253 3.1923 0 3.1923-4.5332 0-4.6002 5.7416.0825 5.7416 1.5751 0 2.8668 1.2778 2.8668 2.8408v12.4356c0 1.5608-1.2895 2.8408-2.8668 2.8408h-11.4222c-1.5751 0-2.8668-1.2778-2.8668-2.8408v-12.4356c0-1.5608 1.2895-2.8408 2.8668-2.8408 4.6849 0 4.6157-5.7416.0825-5.7416-1.9253 0-1.9253-3.1923 0-3.1923z"/><path d="m9.59826 21h13.73134c2.3491 0 2.3491 3.8953 0 3.8953-5.5305 0-5.613 7.0037.1026 7.0037 1.9231 0 3.4958 1.5585 3.4958 3.4642v15.1726c0 1.9056-1.5727 3.4642-3.4958 3.4642h-13.93635c-1.92306-.0022-3.49585-1.5608-3.49585-3.4664v-15.1726c0-1.9035 1.57279-3.462 3.49585-3.462 5.71575 0 5.63085-7.0037.10262-7.0037-2.34916 0-2.34938-3.8953-.00021-3.8953z"/></g></svg>

<svg width="75" height="75" viewBox="0 0 75 75" fill="none" xmlns="http://www.w3.org/2000/svg">
<path fill-rule="evenodd" clip-rule="evenodd" d="M58.3841 32.898H67.165C68.6664 32.898 68.6664 35.3895 67.165 35.3895C63.629 35.3895 63.5754 39.8662 67.2297 39.8662C68.4589 39.8662 69.4651 40.8633 69.4651 42.0814V51.7824C69.4651 53.0005 68.459 53.9976 67.2297 53.9976H58.3192C57.09 53.9976 56.0838 53.0005 56.0838 51.7824V42.0814C56.0838 40.8633 57.0899 39.8662 58.3192 39.8662C61.9734 39.8662 61.9199 35.3895 58.3839 35.3895C56.8825 35.3895 56.8827 32.898 58.3841 32.898Z" fill="white"/>
<path fill-rule="evenodd" clip-rule="evenodd" d="M35.8773 26.9487H47.1345C49.0598 26.9487 49.0598 30.141 47.1345 30.141C42.6013 30.141 42.5343 35.8826 47.217 35.8826C48.7921 35.8826 50.0838 37.1604 50.0838 38.7234V51.159C50.0838 52.7198 48.7943 53.9998 47.217 53.9998H35.7948C34.2197 53.9998 32.928 52.722 32.928 51.159V38.7234C32.928 37.1626 34.2175 35.8826 35.7948 35.8826C40.4797 35.8826 40.4105 30.141 35.8773 30.141C33.952 30.141 33.952 26.9487 35.8773 26.9487Z" fill="white"/>
<path fill-rule="evenodd" clip-rule="evenodd" d="M9.59826 21H23.3296C25.6787 21 25.6787 24.8953 23.3296 24.8953C17.7991 24.8953 17.7166 31.899 23.4322 31.899C25.3553 31.899 26.928 33.4575 26.928 35.3632V50.5358C26.928 52.4414 25.3553 54 23.4322 54H9.49585C7.57279 53.9978 6 52.4392 6 50.5336V35.361C6 33.4575 7.57279 31.899 9.49585 31.899C15.2116 31.899 15.1267 24.8953 9.59847 24.8953C7.24931 24.8953 7.24909 21 9.59826 21Z" fill="white"/>
</svg>
